!!!!SEGMENT: pl-wn--mus-iii-66-386_katski-apolinary--la-cascade-op-3.krn
!!!cenid: 18xx:3624
!!!COM: Kątski, Apolinary
!!!COM-rismID:
!!!CDT: 1825-1879
!!!CNT: Polish
!!!OTL: La Cascade op. 3
!!!PDT:
!!!AGN:
!!!SMS-siglum: PL-Wn
!!!SMS-shelfmark: Mus.III.66.386
!!!SMS-shelfwork: W
!!!SMS-variant: Partytura PL-Wn Mus.III.66.386:1-6
!!!SMS-altvar: Violino PL-Wn Mus.III.66.386:7-11
!!!NIFC-rismSourceID:
!!!NIFC-islandoraID:
!!!URL-pdf-islandora:
!!!URL-scan: https://polona.pl/item/la-cascade-caprice-pour-le-violon-oeuv-3,Njk4OTY3OTY/2/#info:metadata @EN{Scan on Polona} @PL{Skany w portalu Polona}
!!!ONB-nifc: UWAGA: wg partytury. Proszę uzupełnić pola @SMS
!!!AIN: 2 piano 1 violn
!!!key: D
**kern	**dynam	**kern	**dynam	**kern	**dynam
*part3	*part3	*part2	*part2	*part1	*part1
*staff3	*	*staff2	*	*staff1	*
*I"Pianoforte	*	*I"Pianoforte.	*	*I"Violino.	*
*	*	*I'pf	*	*I'vl	*
*Ipiano	*	*Ipiano	*	*Ivioln	*
*ICklav	*	*ICklav	*	*ICstr	*
*	*	*	*	*	*
*clefF4	*	*clefG2	*	*clefG2	*
*k[f#c#]	*	*k[f#c#]	*	*k[f#c#]	*
*D:	*	*D:	*	*D:	*
*M4/4	*	*M4/4	*	*M4/4	*
*met(c)	*	*met(c)	*	*met(c)	*
=1	=1	=1	=1	=1	=1
!	!	!	!	!LO:TX:a:B:t=Allegro	!
!	!	!	!	!LO:TX:a:t=INTRODUZIONI.	!
!	!	!	!	!LO:TX:a:B:t=ALLEGRO GIUSTO.	!
[2DD^/ [2AA [2D	.	[2ff#^\ [2aa [2fff#	ff	1r	.
8DD/L] 8AA] 8D]	.	8ff#\L] 8aa] 8fff#]	.	.	.
8DD/ 8AA 8D	.	8ee'\ 8aa 8eee	.	.	.
8DD/ 8AA#X 8D	.	8dd'\ 8ff# 8ddd	.	.	.
8DD/J 8AA# 8D	.	8cc#'\J 8ff# 8ccc#	.	.	.
=2	=2	=2	=2	=2	=2
4DD/ 4BB 4D	.	4ee'\ 4gg 4eee	.	1r	.
4DD/ 4BB 4D	.	4dd'\ 4gg 4ddd	.	.	.
*clefG2	*	*	*	*	*
8r	.	8r	.	.	.
8d'/L 8b	.	8dd'\L 8gg 8ddd	p	.	.
8d'/ 8b	.	8dd'\ 8gg 8ccc#	.	.	.
8d'/J 8b	.	8dd'\J 8gg 8bb	.	.	.
=3	=3	=3	=3	=3	=3
4.d/ 4.cc#	.	4.ee'\ 4.gg 4.bb	.	1r	.
8d'/ 8cc#	.	8ee'\ 8gg 8aa	.	.	.
8d/L 8cc#	.	(8dd#X\L	.	.	.
8d/ 8cc#	.	8ee\	.	.	.
8d/ 8cc#	.	8ee\ 8gg 8bb	.	.	.
8d/J 8cc#	.	8ee\J 8gg 8aa	.	.	.
=4	=4	=4	=4	=4	=4
4d/ 4a 4dd	.	4gg\)	.	1r	.
!	!	!	!	!LO:LB:g=original	!
4d/ 4a 4dd	.	4ff#\	.	.	.
*clefF4	*	*	*	*	*
8r	.	8r	.	.	.
8DD^/L 8D	.	8d^/L	ff	.	.
8DD^/ 8D	.	8d^/	.	.	.
8EE^/J 8E	.	8e^/J	.	.	.
!LO:LB:g=original	!	!LO:LB:g=original	!	!	!
=5	=5	=5	=5	=5	=5
*^	*	*^	*	*	*
*	*^	*	*	*	*	*	*
4r	2F#\	4FF#\	.	4r	[4.f#\	>	1r	.
8r	.	2.ryy	.	8r	.	.	.	.
8B/ 8d	.	.	.	8b/	8f#\]	.	.	.
(8B/L 8d	[2F#\	.	.	(8b/L	(8f#\L	] p	.	.
8c#/J) 8e	.	.	.	8a#X/J)	8f#\J)	.	.	.
8c#'/L 8e	.	.	.	8a#'/L	8f#'\L	.	.	.
8A#X'/J 8c#	.	.	.	8cc#'/J 8ee	8f#'\J	.	.	.
*	*v	*v	*	*	*	*	*	*
=6	=6	=6	=6	=6	=6	=6	=6
(8A#X/L 8c#	4F#\_	.	(8cc#/L 8ee	(8f#\L	.	1r	.
8B/J) 8d	.	.	8b/J) 8dd	8f#\J)	.	.	.
8B/ 8d	8F#\]	.	8b'/L 8dd	8f#'\L	.	.	.
8G/ 8B	8D\	.	8dd'/J 8gg	8g'\J	.	.	.
(8G/L 8B	(8D\L	.	(8dd/L 8gg	(8g\L	.	.	.
8An/) 8cn	8D\)	.	8dd/) 8ff#	8f#\)	.	.	.
8A/ 8c	8D'\	.	8dd'/ 8ff#	8f#'\	.	.	.
8A/J 8c	8D'\J	.	8dd'/J 8aa	8a'\J	.	.	.
=7	=7	=7	=7	=7	=7	=7	=7
(8A/L 8cn	(8D\L 8F#	.	(8dd/L 8aa	8a\L	.	1r	.
8G/J) 8B	8D\J)	.	8dd/J) 8gg	8g\J	.	.	.
8G/ 8B	8D\	.	8dd'/L 8gg	8g\L	.	.	.
8r	8ryy	.	8dd'/J 8bb	8b\J	p	.	.
8GGG/L 8DD	2ryy	.	(8dd/L 8bb	8b\L	.	.	.
8DD/ 8BB	.	.	8dd/) 8aa#X	8a#X\	.	.	.
8DD/ 8BB	.	.	8dd'/ 8aa#	8a#\	.	.	.
8GGG/J 8DD	.	.	8dd'/J 8bb	8b\J	.	.	.
*v	*v	*	*	*	*	*	*
=8	=8	=8	=8	=8	=8	=8
(8GGG/L 8DD	.	(8dd/L 8bb	(8b\L	.	1r	.
!	!	!	!	!	!LO:LB:g=original	!
8DD/J) 8BB	.	8gg/) 8ccc#	8cc#\)	.	.	.
8DD'/L 8BB	.	8gg'/ 8ccc#	8cc#'\	.	.	.
8GGG#X'/J 8DD	.	8ffn'/J 8ddd	8dd'\J	.	.	.
(8GGG#/L 8DD	.	(8ff/L 8ddd	(8dd\L	.	.	.
8DD/J) 8BB	.	8ff/) 8ccc#	8cc#\)	.	.	.
8DD'/L 8BB	.	8ff'/ 8ccc#	8cc#'\	.	.	.
8GGG#'/J 8DD	.	8ff'/J 8ddd	8dd'\J	.	.	.
!LO:LB:g=original	!	!	!LO:LB:g=original	!LO:LB:g=original	!	!
*	*	*v	*v	*	*	*
==9	==9	==9	==9	==9	==9
*M2/4	*	*M2/4	*	*M2/4	*
(8GGG#X^/L 8DD	.	(8dd^\L 8ffn 8ddd	ff	2r	.
8DD^/) 8BB	.	8ff^\) 8gg#X 8fffn	.	.	.
8DD'^/ 8BB	.	8gg#'^\ 8bb 8ggg#X	.	.	.
8DD'^/J 8BB	.	8bb'^\J 8ddd 8bbb	.	.	.
==10	==10	==10	==10	==10	==10
*M3/8	*	*M3/8	*	*M3/8	*
*	*	*8va	*	*	*
*	*	*	*	*^	*
!	!	!	!	!LO:TX:a:t=ALLEGRO VIVO.	!	!
8AAA/ 8AA	.	8aa\ 8ccc# 8eee 8aaa	.	8A/ 8a	8ryy	.
*	*	*	*	*v	*v	*
*	*	*X8va	*	*	*
*	*	*	*	*^	*
8r	.	8r	.	(32a'/LLL	(32A'\LLL	.
.	.	.	.	32a'/)	32A'\)	.
.	.	.	.	(32a'/	(32A'\	.
.	.	.	.	32a'/JJJ)	32A'\JJJ)	.
8r	.	8r	.	(32a'/LLL	(32A'\LLL	.
.	.	.	.	32a'/)	32A'\)	.
.	.	.	.	(32a'/	(32A'\	.
.	.	.	.	32a'/JJJ)	32A'\JJJ)	.
=11	=11	=11	=11	=11	=11	=11
*	*	*	*	*tremolo	*	*
4.r	.	4.r	.	32a/LLL	32A\LLL	.
.	.	.	.	32a/	32A\	.
.	.	.	.	32a/	32A\	.
.	.	.	.	32a/	32A\	.
.	.	.	.	32a/	32A\	.
.	.	.	.	32a/	32A\	.
.	.	.	.	32a/	32A\	.
.	.	.	.	32a/	32A\	.
.	.	.	.	32a/	32A\	.
.	.	.	.	32a/	32A\	.
.	.	.	.	32a/	32A\	.
.	.	.	.	32a/JJJ	32A\JJJ	.
=12	=12	=12	=12	=12	=12	=12
4.r	.	4.r	.	32a/LLL	32A\LLL	.
.	.	.	.	32a/	32A\	.
.	.	.	.	32a/	32A\	.
.	.	.	.	32a/	32A\	.
.	.	.	.	32a/	32A\	.
.	.	.	.	32a/	32A\	.
.	.	.	.	32a/	32A\	.
.	.	.	.	32a/	32A\	.
.	.	.	.	32a/	32A\	.
.	.	.	.	32a/	32A\	.
.	.	.	.	32a/	32A\	.
.	.	.	.	32a/JJJ	32A\JJJ	.
=13	=13	=13	=13	=13	=13	=13
4.r	.	4.r	.	32a/LLL	32A\LLL	.
.	.	.	.	32a/	32A\	.
.	.	.	.	32a/	32A\	.
.	.	.	.	32a/	32A\	.
.	.	.	.	32a/	32A\	.
.	.	.	.	32a/	32A\	.
.	.	.	.	32a/	32A\	.
.	.	.	.	32a/	32A\	.
.	.	.	.	32a/	32A\	.
.	.	.	.	32a/	32A\	.
.	.	.	.	32a/	32A\	.
.	.	.	.	32a/JJJ	32A\JJJ	.
=14	=14	=14	=14	=14	=14	=14
!	!	!	!	!LO:TX:a:t=Sergue.	!	!
*	*	*	*	*Xtremolo	*	*
4.r	.	4.r	.	8a/L	8A\L	.
.	.	.	.	8a/	8A\	.
.	.	.	.	8a/J	8A\J	.
=15	=15	=15	=15	=15	=15	=15
4.r	.	4.r	.	8a/L	8A\L	.
.	.	.	.	8a/	8A\	.
.	.	.	.	8a/J	8A\J	.
=16	=16	=16	=16	=16	=16	=16
4.r	.	4.r	.	8a/L	8A\L	.
.	.	.	.	8a/	8A\	.
.	.	.	.	8a/J	8A\J	.
=17	=17	=17	=17	=17	=17	=17
4.r	.	4.r	.	8a/L	8A\L	.
.	.	.	.	8a/	8A\	.
.	.	.	.	8a/J	8A\J	.
=18	=18	=18	=18	=18	=18	=18
4.r	.	4.r	.	8a/L	8A\L	.
!LO:LB:g=original	!	!LO:LB:g=original	!	!	!	!
.	.	.	.	8a/	8B-X\	.
.	.	.	.	8a/J	8Bn\J	.
!	!	!	!	!LO:LB:g=original	!LO:LB:g=original	!
=19	=19	=19	=19	=19	=19	=19
4.r	.	4.r	.	8a/L	8cn\L	<
.	.	.	.	8a/	8c#X\	.
.	.	.	.	8a/J	8d\J	.
=20	=20	=20	=20	=20	=20	=20
4.r	.	4.r	.	8a/L	8d#X\L	.
.	.	.	.	8a/	8e\	.
.	.	.	.	8a/J	8fn\J	.
=21	=21	=21	=21	=21	=21	=21
4.r	.	4.r	.	8a/L	8f#X\L	.
.	.	.	.	8a/	8g\	.
.	.	.	.	8a/J	8g#X\J	.
=22	=22	=22	=22	=22	=22	=22
4.r	.	4.r	.	8a/L	8a\L	.
.	.	.	.	8b-X/	8a\	.
.	.	.	.	8bn/J	8a\J	.
=23	=23	=23	=23	=23	=23	=23
4.r	.	4.r	.	8ccn/L	8a\L	.
.	.	.	.	8cc#X/	8a\	.
.	.	.	.	8dd/J	8a\J	.
=24	=24	=24	=24	=24	=24	=24
4.r	.	4.r	.	8dd#X/L	8a\L	.
.	.	.	.	8ee/	8a\	.
.	.	.	.	8ffn/J	8a\J	.
=25	=25	=25	=25	=25	=25	=25
4.r	.	4.r	.	8ff#X/L	8a\L	.
.	.	.	.	8gg/	8a\	.
.	.	.	.	8gg#X/J	8a\J	.
=26	=26	=26	=26	=26	=26	=26
4.r	.	4.r	.	8aa/L	8a\L	.
.	.	.	.	8bb-X/	8a\	.
.	.	.	.	8bbn/J	8a\J	.
=27	=27	=27	=27	=27	=27	=27
4.r	.	4.r	.	8cccn/L	8a\L	.
.	.	.	.	8ccc#X/	8a\	.
.	.	.	.	8ddd/J	8a\J	.
=28	=28	=28	=28	=28	=28	=28
4.r	.	4.r	.	8ddd#X/L	8a\L	.
.	.	.	.	8eee/	8a\	[
.	.	.	.	8fffn/J	8a\J	.
=29	=29	=29	=29	=29	=29	=29
4.r	.	4.r	.	8fff#X/L	8a\L	.
.	.	.	.	8ggg/	8a\	.
.	.	.	.	8ggg#X/J	8a\J	.
=30	=30	=30	=30	=30	=30	=30
4.r	.	4.r	.	8aaa/L	8a\L	ff
.	.	.	.	8aaa/	8a\	.
.	.	.	.	8ggg#X/J	8a\J	>
=31	=31	=31	=31	=31	=31	=31
4.r	.	4.r	.	8gggn/L	8a\L	.
.	.	.	.	8ggg/	8a\	.
.	.	.	.	8fff#/J	8a\J	.
=32	=32	=32	=32	=32	=32	=32
4.r	.	4.r	.	8eee/L	8a\L	.
!LO:PB:g=original	!	!LO:PB:g=original	!	!	!	!
.	.	.	.	8eee/	8a\	.
.	.	.	.	8ddd/J	8a\J	.
!	!	!	!	!LO:PB:g=original	!LO:PB:g=original	!
=33	=33	=33	=33	=33	=33	=33
4.r	.	4.r	.	8ccc#/L	8a\L	.
.	.	.	.	8ccc#/	8a\	.
.	.	.	.	8bb/J	8a\J	.
=34	=34	=34	=34	=34	=34	=34
*	*	*	*	*	*tremolo	*
4.r	.	4.r	.	8r	32a\LLL	]
.	.	.	.	.	32a\	.
.	.	.	.	.	32a\	.
.	.	.	.	.	32a\	.
*	*	*	*	*tremolo	*	*
.	.	.	.	32bb/LLL	32a\	>
.	.	.	.	32bb/	32a\	.
.	.	.	.	32bb/	32a\	.
.	.	.	.	32bb/	32a\	.
.	.	.	.	32aa/	32a\	.
.	.	.	.	32aa/	32a\	.
.	.	.	.	32aa/	32a\	.
.	.	.	.	32aa/JJJ	32a\JJJ	.
=35	=35	=35	=35	=35	=35	=35
4.r	.	4.r	.	8r	32a\LLL	]
.	.	.	.	.	32a\	.
.	.	.	.	.	32a\	.
.	.	.	.	.	32a\	.
.	.	.	.	32bb/LLL	32a\	.
.	.	.	.	32bb/	32a\	.
.	.	.	.	32bb/	32a\	.
.	.	.	.	32bb/	32a\	.
.	.	.	.	32aa/	32a\	.
.	.	.	.	32aa/	32a\	.
.	.	.	.	32aa/	32a\	.
.	.	.	.	32aa/JJJ	32a\JJJ	.
=36	=36	=36	=36	=36	=36	=36
!	!	!	!	!LO:TX:a:t=Segue.	!	!
*	*	*	*	*	*Xtremolo	*
4.r	.	4.r	.	8r	8a\L	.
.	.	.	.	8bb/L	8a\	.
.	.	.	.	8aa/J	8a\J	.
=37	=37	=37	=37	=37	=37	=37
4.r	.	4.r	.	8r	8a\L	.
.	.	.	.	8bb/L	8a\	.
.	.	.	.	8aa/J	8a\J	.
=38	=38	=38	=38	=38	=38	=38
4.r	.	4.r	.	8r	8a\L	.
.	.	.	.	8aa/L	8a\	.
.	.	.	.	8gg#X/J	8a\J	.
=39	=39	=39	=39	=39	=39	=39
4.r	.	4.r	.	8r	8a\L	.
.	.	.	.	8aa/L	8a\	.
.	.	.	.	8gg#X/J	8a\J	.
=40	=40	=40	=40	=40	=40	=40
4.r	.	4.r	.	8r	8a\L	.
.	.	.	.	8aa/L	8a\	.
.	.	.	.	8ggn/J	8a\J	.
=41	=41	=41	=41	=41	=41	=41
4.r	.	4.r	.	8r	8a\L	.
.	.	.	.	8aa/L	8a\	.
.	.	.	.	8gg/J	8a\J	.
*	*	*	*	*v	*v	*
=42	=42	=42	=42	=42	=42
*	*	*	*	*tremolo	*
8DD/	.	8r	.	32d\LLL	.
.	.	.	.	32d\	.
.	.	.	.	32d\	.
.	.	.	.	32d\JJJ	.
8r	.	4A^/ 4d 4f#	p	32a/LLL 32ff#	.
.	.	.	.	32a/ 32ff#	.
.	.	.	.	32a/ 32ff#	.
.	.	.	.	32a/ 32ff#	.
8r	.	.	.	32a/ 32ee	.
.	.	.	.	32a/ 32ee	.
.	.	.	.	32a/ 32ee	.
.	.	.	.	32a/JJJ 32ee	.
=43	=43	=43	=43	=43	=43
8D\	.	8r	.	32d\LLL	.
.	.	.	.	32d\	.
.	.	.	.	32d\	.
.	.	.	.	32d\JJJ	.
8r	.	4A^/ 4d 4f#	.	32f#/LLL 32dd	>
!	!	!LO:LB:g=original	!	!	!
.	.	.	.	32f#/ 32dd	.
.	.	.	.	32f#/ 32dd	.
.	.	.	.	32f#/ 32dd	.
8r	.	.	.	32f#/ 32cc#	.
!LO:LB:g=original	!	!	!	!	!
.	.	.	.	32f#/ 32cc#	.
.	.	.	.	32f#/ 32cc#	.
.	.	.	.	32f#/JJJ 32cc#	]]
!	!	!	!	!LO:LB:g=original	!
=44	=44	=44	=44	=44	=44
8DD/	.	8r	.	32d\LLL	.
.	.	.	.	32d\	.
.	.	.	.	32d\	.
.	.	.	.	32d\JJJ	.
8r	.	4B^/ 4d 4g	.	32g/LLL 32ee	>
.	.	.	.	32g/ 32ee	.
.	.	.	.	32g/ 32ee	.
.	.	.	.	32g/ 32ee	.
8r	.	.	.	32g/ 32dd	.
.	.	.	.	32g/ 32dd	.
.	.	.	.	32g/ 32dd	.
.	.	.	.	32g/JJJ 32dd	]]
=45	=45	=45	=45	=45	=45
8D\	.	8r	.	32d\LLL	.
.	.	.	.	32d\	.
.	.	.	.	32d\	.
.	.	.	.	32d\JJJ	.
8r	.	4B^/ 4d 4g	.	32g/LLL 32cc#	>
.	.	.	.	32g/ 32cc#	.
.	.	.	.	32g/ 32cc#	.
.	.	.	.	32g/ 32cc#	.
8r	.	.	.	32g/ 32b	.
.	.	.	.	32g/ 32b	.
.	.	.	.	32g/ 32b	.
.	.	.	.	32g/JJJ 32b	]]
=46	=46	=46	=46	=46	=46
!	!	!	!	!LO:TX:a:t=Segue.	!
8CC#/	.	8r	.	8c#\	.
8r	.	4A^/ 4e 4g	.	8g/L 8b	>
8r	.	.	.	8g/J 8a	]]
=47	=47	=47	=47	=47	=47
8C#/	.	8r	.	8A\	.
8r	.	4A^/ 4e 4g	.	8g/L 8b	>
8r	.	.	.	8g/J 8a	]]
=48	=48	=48	=48	=48	=48
8DD/	.	8r	.	8d\	.
8r	.	4A^/ 4d 4f#	.	8f#/L 8b	.
8r	.	.	.	8f#/J 8a	.
=49	=49	=49	=49	=49	=49
(4.D#X\	>	8r	.	8d#X/	.
.	.	4B^/ 4f# 4a	.	8g/L 8ff#	<
.	.	.	.	8g/J 8bb	[[
=50	=50	=50	=50	=50	=50
8E`\)	.	8r	.	8e\	.
8r	]	4B^/ 4e 4g	.	8b/L 8aa	>
8r	.	.	.	8b/J 8gg	]]
=51	=51	=51	=51	=51	=51
(4.C#/	>	8r	.	8c#\	.
.	.	4A^/ 4e 4g	.	8a/L 8ee	<
.	.	.	.	8a/J 8aa	[[
=52	=52	=52	=52	=52	=52
8D`\)	.	8r	.	8d/	.
8r	]	4A^/ 4d 4f#	.	8a/L 8gg	>
8r	.	.	.	8a/J 8ff#	]]
=53	=53	=53	=53	=53	=53
4.FF#\	>	8r	.	8d/	.
!LO:LB:g=original	!	!	!	!	!
.	.	4D^/ 4A 4d	.	8f#/L 8ee	.
!	!	!LO:LB:g=original	!	!	!
.	.	.	.	8f#/J 8dd	.
!	!	!	!	!LO:LB:g=original	!
=54	=54	=54	=54	=54	=54
4.GG\	.	8r	.	8G\	.
.	.	4E^/ 4B 4d	.	8e/L 8ee	.
.	.	.	.	8e/J 8dd	.
=55	=55	=55	=55	=55	=55
4.GG#X\	.	8r	.	8G#X\	.
.	.	4E^/ 4B 4d	.	8e/L 8ee	.
.	.	.	.	8e/J 8dd	.
=56	=56	=56	=56	=56	=56
4.AA\	.	8r	.	8A\	.
.	.	4E^/ 4A 4c#	.	8e/L 8dd	.
.	.	.	.	8e/J 8cc#	.
=57	=57	=57	=57	=57	=57
4.C#/	]]	8r	.	8c#\	.
.	.	4A^/ 4e 4g	.	8g/L 8b	.
.	.	.	.	8g/J 8a	.
=58	=58	=58	=58	=58	=58
8DD'/	.	8r	.	8d\	.
8r	.	(8A/L	.	8a/L 8ff#	.
8r	.	8d/J) 8f#	.	8a/J 8ee	.
=59	=59	=59	=59	=59	=59
8D'\	.	8r	.	8d\	.
8r	.	(8a\L	.	8f#/L 8dd	.
8r	.	8dd\J) 8ff#	.	8f#/J 8cc#	.
=60	=60	=60	=60	=60	=60
8DD'/	.	8r	.	8d\	.
8r	.	(8B/L	.	8g/L 8ee	.
8r	.	8d/J) 8g	.	8g/J 8dd	.
=61	=61	=61	=61	=61	=61
8D'\	.	8r	.	8d\	.
8r	.	(8b\L	.	8g/L 8cc#	.
8r	.	8dd\J) 8gg	.	8g/J 8b	.
=62	=62	=62	=62	=62	=62
8CC#'/	.	8r	.	8c#\	.
8r	.	(8A/L	.	8g/L 8b	.
8r	.	8e/J) 8g	.	8g/J 8a	.
!LO:LB:g=original	!	!LO:LB:g=original	!	!LO:LB:g=original	!
=63	=63	=63	=63	=63	=63
8C#'/	.	8r	.	8A\	.
8r	.	(8a\L	.	8g/L 8b	.
8r	.	8ee\J) 8gg	.	8g/J 8a	.
=64	=64	=64	=64	=64	=64
8DD'/	.	8r	.	8d\	.
8r	.	(8A/L	.	8f#/L 8b	.
8r	.	8d/J) 8f#	.	8f#/J 8a	.
=65	=65	=65	=65	=65	=65
(4.D#X'^\	>]	8r	.	8d#X\	.
.	.	(8f#/L 8a	.	8b/L 8ff#	.
.	.	8B/J)	.	8b/J 8bb	.
=66	=66	=66	=66	=66	=66
8E'\)	.	8r	.	8e\	.
8r	.	(8B/L	.	8b/L 8aa	.
8r	.	8e/J) 8g	.	8b/J 8gg	.
=67	=67	=67	=67	=67	=67
(4.C#^/	>]	8r	.	8c#\	.
.	.	(8e/L 8g	.	8a/L 8ee	.
.	.	8A/J)	.	8a/J 8aa	.
=68	=68	=68	=68	=68	=68
8D'\)	.	8r	.	8d\	.
8r	.	(8A/L	.	8a/L 8gg	.
8r	.	8d/J) 8f#	.	8a/J 8ff#	.
=69	=69	=69	=69	=69	=69
(4.GG#X/	>]	8r	.	8G#X\	.
.	.	(8B/L	.	8fn/L 8ee	.
.	.	8d/J) 8fn	.	8f/J 8dd	.
=70	=70	=70	=70	=70	=70
4.AA/)	.	8r	.	8A\	.
!LO:PB:g=original	!	!	!	!	!
.	.	(8A/L	.	8f#X/L 8ee	.
.	.	8d/J) 8f#X	.	8f#/J 8dd	.
!	!	!LO:PB:g=original	!	!LO:PB:g=original	!
=71	=71	=71	=71	=71	=71
4.AA/	.	8r	.	8A\	.
.	.	(8A/L	.	8g/L 8dd	.
.	.	8c#/J) 8g	.	8g/J 8cc#	.
=72	=72	=72	=72	=72	=72
8D'\	.	8A/ 8d 8f#	.	8d\	.
(8d/L 8f#	.	8r	.	8f#/L 8a	.
8A/J)	.	8r	.	8g/J 8dd	.
=73	=73	=73	=73	=73	=73
.	.	(8qbb/	.	.	.
8D'\	.	4.aa^\)	.	8d\	.
(8c#/L 8g	.	.	.	8a/L 8ee	.
8A/J)	.	.	.	8cc#/J 8aa	.
=74	=74	=74	=74	=74	=74
.	.	(8qbb/	.	.	.
8D'\	.	4.aa^\)	.	8d\	.
(8d/L 8f#	.	.	.	8dd/L 8aa	.
8A/J)	.	.	.	8ff#/J 8ddd	.
=75	=75	=75	=75	=75	=75
.	.	(8qbb/	.	.	.
8D'\	.	4.aa^\)	.	8d\	.
(8c#/L 8g	.	.	.	8a/L 8ee	.
8A/J)	.	.	.	8cc#/J 8aa	.
=76	=76	=76	=76	=76	=76
.	.	(8qbb/	.	.	.
8D'\	.	4aa^\)	.	8d\	.
(8d/L 8f#	.	.	.	8f#/L 8a	.
.	.	(8qbb/	.	.	.
8A/J)	.	8aa^\)	.	8f#/J 8dd	.
=77	=77	=77	=77	=77	=77
.	.	(8qbb/	.	.	.
8D'\	.	4aa^\)	.	8d\	.
(8c#/L 8g	.	.	.	8a/L 8ee	.
.	.	(8qbb/	.	.	.
8A/J)	.	8aa^\)	.	8cc#/J 8aa	.
=78	=78	=78	=78	=78	=78
.	.	(8qbb/	.	.	.
8D'\	.	4aa^\)	.	8d\	.
(8d/L 8f#	.	.	.	8dd/L 8aa	.
.	.	(8qbb/	.	.	.
8A/J)	.	8aa^\)	.	8ff#/J 8ddd	.
!LO:LB:g=original	!	!LO:LB:g=original	!	!LO:LB:g=original	!
=79	=79	=79	=79	=79	=79
.	.	(8qbb/	.	.	.
8D'\	.	4aa^\)	.	8d\	.
(8c#/L 8g	.	.	.	8a/L 8ee	.
.	.	(8qbb/	.	.	.
8A/J)	.	8aa^\)	.	8cc#/J 8aa	.
=80	=80	=80	=80	=80	=80
.	.	(8qbb/	.	.	.
8D'\	.	8aa^\L)	.	8d\	.
.	.	(8qbb/	.	.	.
(8d/L 8f#	.	8aa^\)	.	8f#/L 8a	.
.	.	(8qbb/	.	.	.
8A/J)	.	8aa^\J)	.	8f#/J 8dd	.
=81	=81	=81	=81	=81	=81
.	.	(8qbb/	.	.	.
8D'\	.	8aa^\L)	.	8d\	.
.	.	(8qbb/	.	.	.
(8c#/L 8g	.	8aa^\)	.	8a/L 8ee	.
.	.	(8qbb/	.	.	.
8A/J)	.	8aa^\J)	.	8cc#/J 8aa	.
=82	=82	=82	=82	=82	=82
.	.	(8qbb/	<	.	.
8D'\	.	[4.aa^T\)	.	8d\	.
(8d/L 8f#	.	.	.	8f#/L 8a	.
8A/J)	.	.	.	8f#/J 8dd	.
=83	=83	=83	=83	=83	=83
8D'\	.	4.aa\]	.	8d\	.
(8c#/L 8g	.	.	.	8a/L 8ee	.
8A/J)	.	.	.	8cc#/J 8aa	.
.	.	(32qqgg#X/LLL	[	.	.
.	.	32qqaa/	.	.	.
.	.	32qqbb/	.	.	.
.	.	32qqccc#/JJJ)	[[	.	.
=84	=84	=84	=84	=84	=84
*	*	*	*	*^	*
8D^\	.	8ddd^\	sf	32dd/LLL	32d\LLL	.
.	.	.	.	32dd/	32d\	.
.	.	.	.	32dd/	32d\	.
.	.	.	.	32dd/	32d\	.
8r	.	8r	.	32dd/	32d\	>
.	.	.	.	32dd/	32d\	.
.	.	.	.	32dd/	32d\	.
.	.	.	.	32dd/	32d\	.
8r	.	8r	.	32dd/	32d\	.
.	.	.	.	32dd/	32d\	.
.	.	.	.	32dd/	32d\	.
.	.	.	.	32dd/JJJ	32d\JJJ	.
=85	=85	=85	=85	=85	=85	=85
4.r	.	4.r	.	32dd/LLL	32d\LLL	.
.	.	.	.	32dd/	32d\	.
.	.	.	.	32dd/	32d\	.
.	.	.	.	32dd/	32d\	.
.	.	.	.	32dd/	32d\	.
.	.	.	.	32dd/	32d\	.
.	.	.	.	32dd/	32d\	.
.	.	.	.	32dd/	32d\	.
.	.	.	.	32dd/	32d\	.
.	.	.	.	32dd/	32d\	.
.	.	.	.	32dd/	32d\	.
.	.	.	.	32dd/JJJ	32d\JJJ	.
=86	=86	=86	=86	=86	=86	=86
4.r	.	4.r	.	32dd/LLL	32d\LLL	.
!LO:LB:g=original	!	!LO:LB:g=original	!	!	!	!
.	.	.	.	32dd/	32d\	.
.	.	.	.	32dd/	32d\	.
.	.	.	.	32dd/	32d\	.
.	.	.	.	32dd/	32e-X\	.
.	.	.	.	32dd/	32e-\	.
.	.	.	.	32dd/	32e-\	.
.	.	.	.	32dd/	32e-\	.
.	.	.	.	32dd/	32en\	.
.	.	.	.	32dd/	32e\	.
.	.	.	.	32dd/	32e\	.
.	.	.	.	32dd/JJJ	32e\JJJ	.
!	!	!	!	!LO:LB:g=original	!LO:LB:g=original	!
=87	=87	=87	=87	=87	=87	=87
4.r	.	4.r	.	32dd/LLL	32fn\LLL	]
.	.	.	.	32dd/	32f\	.
.	.	.	.	32dd/	32f\	.
.	.	.	.	32dd/	32f\	.
.	.	.	.	32dd/	32f#X\	.
.	.	.	.	32dd/	32f#\	.
.	.	.	.	32dd/	32f#\	.
.	.	.	.	32dd/	32f#\	.
.	.	.	.	32dd/	32d\	.
.	.	.	.	32dd/	32d\	.
.	.	.	.	32dd/	32d\	.
.	.	.	.	32dd/JJJ	32d\JJJ	.
*	*	*	*	*v	*v	*
=88	=88	=88	=88	=88	=88
.	.	(8qqee/	p	.	.
8GG'/	.	4.dd^\)	.	32G\LLL	.
.	.	.	.	32G\	.
.	.	.	.	32G\	.
.	.	.	.	32G\JJJ	.
(8G\L 8B	.	.	.	32B/LLL 32d	.
.	.	.	.	32B/ 32d	.
.	.	.	.	32B/ 32d	.
.	.	.	.	32B/ 32d	.
8D\J)	.	.	.	32B/ 32g	.
.	.	.	.	32B/ 32g	.
.	.	.	.	32B/ 32g	.
.	.	.	.	32B/JJJ 32g	.
=89	=89	=89	=89	=89	=89
!	!	!	!	!LO:TX:a:t=Segue.	!
.	.	(8qqee/	.	.	.
8GG'/	.	4dd^\)	.	8G\	.
(8F#\L 8cn	.	.	.	8d/L 8a	.
.	.	(8qqee/	.	.	.
8D\J)	.	8dd^\)	.	8f#/J 8dd	.
=90	=90	=90	=90	=90	=90
.	.	(8qqee/	.	.	.
8GG'/	.	8dd^\L)	.	8G\	.
.	.	(8qqee/	.	.	.
(8G\L 8B	.	8dd^\)	.	8g/L 8dd	.
.	.	(8qqee/	.	.	.
8D\J)	.	8dd^\J)	.	8b/J 8gg	.
=91	=91	=91	=91	=91	=91
.	.	(8qqee/	.	.	.
8GG'/	.	4.dd^T\)	.	8G\	.
(8F#\L 8cn	.	.	.	8d/L 8a	.
8D\J)	.	.	.	8f#/J 8dd	.
.	.	(32qqcc#/LLL	.	.	.
.	.	32qqdd/	.	.	.
.	.	32qqee/	.	.	.
.	.	32qqff#/JJJ)	.	.	.
=92	=92	=92	=92	=92	=92
*	*	*	*	*^	*
!	!	!	!	!	!	!LO:DY:a
8GG/	.	8gg'\	.	32g/LLL	32G\LLL	>
.	.	.	.	32g/	32G\	.
.	.	.	.	32g/	32G\	.
.	.	.	.	32g/	32G\	.
8r	.	8r	.	32g/	32G\	.
.	.	.	.	32g/	32G\	.
.	.	.	.	32g/	32G\	.
.	.	.	.	32g/	32G\	.
8r	.	8r	.	32g/	32G\	.
.	.	.	.	32g/	32G\	.
.	.	.	.	32g/	32G\	.
.	.	.	.	32g/JJJ	32G\JJJ	.
=93	=93	=93	=93	=93	=93	=93
!	!	!	!	!LO:TX:a:t=Segue.	!	!
*	*	*	*	*Xtremolo	*	*
4.r	.	4.r	.	8g/L	8G\L	.
.	.	.	.	8g/	8G\	.
.	.	.	.	8g/J	8G\J	.
=94	=94	=94	=94	=94	=94	=94
4.r	.	4.r	.	8g/L	8G\L	.
!LO:LB:g=original	!	!LO:LB:g=original	!	!	!	!
.	.	.	.	8g/	8A-X\	.
.	.	.	.	8g/J	8An\J	.
!	!	!	!	!LO:LB:g=original	!LO:LB:g=original	!
*	*	*	*	*v	*v	*
=95	=95	=95	=95	=95	=95
4.r	.	4.r	.	8g/L	]
.	.	.	.	8g/	.
.	.	.	.	8g/J	.
=96	=96	=96	=96	=96	=96
.	.	(8qaa/	pp	.	.
*	*	*	*	*tremolo	*
8Cn/	.	4.gg^\)	.	32cn\LLL	.
.	.	.	.	32c\	.
.	.	.	.	32c\	.
.	.	.	.	32c\JJJ	.
(8cn\L 8e	.	.	.	32e/LLL 32g	.
.	.	.	.	32e/ 32g	.
.	.	.	.	32e/ 32g	.
.	.	.	.	32e/ 32g	.
8G\J)	.	.	.	32e/ 32ccn	.
.	.	.	.	32e/ 32cc	.
.	.	.	.	32e/ 32cc	.
.	.	.	.	32e/JJJ 32cc	.
=97	=97	=97	=97	=97	=97
!	!	!	!	!LO:TX:a:t=Segue.	!
.	.	(8qaa/	.	.	.
8Cn'/	.	4gg^\)	.	8cn\	.
(8B\L 8fn	.	.	.	8g/L 8dd	.
.	.	(8qaa/	.	.	.
8G\J)	.	8gg^\)	.	8b/J 8gg	.
=98	=98	=98	=98	=98	=98
.	.	(8qaa/	.	.	.
8Cn'/	.	8gg^\L)	.	8cn\	.
.	.	(8qaa/	.	.	.
(8cn\L 8e	.	8gg^\)	.	8ccn/L 8gg	.
.	.	(8qaa/	.	.	.
8G\J)	.	8gg^\J)	.	8ee/J 8cccn	.
=99	=99	=99	=99	=99	=99
8Cn'/	.	4.gg^T\	.	8cn\	.
(8B\L 8fn	.	.	.	8g/L 8dd	.
8G\J)	.	.	.	8b/J 8gg	.
.	.	(32qqff#/LLL	.	.	.
.	.	32qqgg/	.	.	.
.	.	32qqaa/	.	.	.
.	.	32qqbb/JJJ)	.	.	.
=100	=100	=100	=100	=100	=100
*	*	*	*	*^	*
*	*	*	*	*Xtremolo	*	*
8Cn/	.	8cccn\	.	8ccn/L	8cn\L	.
8r	.	8r	.	8cc/	8c\	.
8r	.	8r	.	8cc/J	8c\J	.
=101	=101	=101	=101	=101	=101	=101
4.r	.	4.r	.	8ccn/L	8cn\L	.
.	.	.	.	8cc/	8c\	.
.	.	.	.	8cc/J	8c\J	.
=102	=102	=102	=102	=102	=102	=102
4.r	.	4.r	.	8ccn/L	8cn\L	.
.	.	.	.	8cc/	8d-X\	.
.	.	.	.	8cc/J	8dn\J	.
=103	=103	=103	=103	=103	=103	=103
4.r	.	4.r	.	8ccn/L	8e-X\L	.
!LO:PB:g=original	!	!LO:PB:g=original	!	!	!	!
.	.	.	.	8cc/	8en\	.
.	.	.	.	8cc/J	8cn\J	.
!	!	!	!	!LO:PB:g=original	!LO:PB:g=original	!
=104	=104	=104	=104	=104	=104	=104
!	!	!	!	!	!	!LO:DY:a
8FF#\L 8F#	.	[4.a#X\ [4.aa#X	.	8ff#/L	8f#\L	<
8F#\ 8c#X 8e	.	.	.	8ff#/	8g\	.
8F#\J 8c# 8e	.	.	.	8ff#/J	8g#X\J	.
=105	=105	=105	=105	=105	=105	=105
!	!	!	!	!	!	!LO:DY:a
4.F#\ 4.c# 4.e	.	8a#\L] 8aa#]	.	8ff#/L	8a\L	[ <
!	!	!	!	!	!	!LO:DY:a
.	.	8cc#\ 8ccc#	.	8ff#/	8a#X\	[ >
.	.	8ff#\J 8fff#	.	8ff#/J	8f#\J	.
*	*	*	*	*v	*v	*
=106	=106	=106	=106	=106	=106
*	*	*	*	*8va	*
*	*	*	*	*^	*
!	!	!	!	!	!	!LO:DY:a
8BBB\L 8BB	.	[4.dd#X\ [4.ddd#X	.	8bb/L	8b\L	] <
8A\ 8B 8f#	.	.	.	8bb/	8ccn\	.
8A\J 8B 8f#	.	.	.	8bb/J	8cc#X\J	.
=107	=107	=107	=107	=107	=107	=107
!	!	!	!	!	!	!LO:DY:a
4A\ 4B 4f#	.	8dd#\L] 8ddd#]	.	8bb/L	8dd\L	[ >
.	.	8cc#\ 8ccc#	.	8bb/	8dd#X\	.
8r	.	8b\J 8bb	.	8bb/J	8b\J	.
*	*	*	*	*v	*v	*
*	*	*	*	*X8va	*
=108	=108	=108	=108	=108	=108
*	*	*	*	*^	*
!	!	!	!	!LO:TX:a:t=loco.	!	!
8EE\L 8E	.	[4.g#X\ [4.gg#X	.	8ee/L	8e\L	] <
8E\ 8B 8d	.	.	.	8ee/	8fn\	.
8E\J 8B 8d	.	.	.	8ee/J	8f#X\J	.
=109	=109	=109	=109	=109	=109	=109
4E\ 4B 4d	.	8g#\L] 8gg#]	.	8ee/L	8g\L	[ >
.	.	8b\ 8bb	.	8ee/	8g#X\	.
8r	.	8ee\J 8eee	.	8ee/J	8e\J	.
*	*	*	*	*v	*v	*
=110	=110	=110	=110	=110	=110
*	*	*	*	*8va	*
*	*	*	*	*^	*
!	!	!	!	!	!	!LO:DY:a
8AAA/L 8AA	.	[4.cc#\ [4.ccc#	.	8aa/L	8a\L	] <
8G\ 8A 8e	.	.	.	8aa/	8b-X\	.
8G\J 8A 8e	.	.	.	8aa/J	8bn\J	.
=111	=111	=111	=111	=111	=111	=111
!	!	!	!	!	!	!LO:DY:a
4G\ 4A 4e	.	8cc#\L] 8ccc#]	.	8aa/L	8ccn\L	[ >
.	.	8b\ 8bb	.	8aa/	8cc#X\	.
8r	.	8a\J 8aa	.	8aa/J	8a\J	.
*	*	*	*	*v	*v	*
*	*	*	*	*X8va	*
=112	=112	=112	=112	=112	=112
*	*	*	*	*^	*
!	!	!	!	!LO:TX:a:t=loco.	!	!
4D/	.	8f#\L 8ff#	.	8dd/L	8d\L	] <
.	.	8a\ 8aa	.	8dd/	8e\	.
8F#\ 8A 8cn	.	8dd\J 8ddd	.	8dd/J	8f#\J	.
!LO:LB:g=original	!	!LO:LB:g=original	!	!LO:LB:g=original	!LO:LB:g=original	!
*	*	*	*	*v	*v	*
=113	=113	=113	=113	=113	=113
*	*	*	*	*8va	*
*	*	*	*	*^	*
4GG/ 4G	.	8b\L 8bb	.	8gg/L	8g\L	[ <
.	.	8a\ 8aa	.	8gg/	8a\	.
8G\ 8B	.	8g\J 8gg	.	8gg/J	8b\J	.
*	*	*	*	*v	*v	*
*	*	*	*	*X8va	*
=114	=114	=114	=114	=114	=114
*	*	*	*	*^	*
!	!	!	!	!LO:TX:a:t=loco.	!	!
4C#X/	.	8e#X\L 8ee#X	.	8cc#/L	8c#\L	[ <
.	.	8g#X\ 8gg#X	.	8cc#/	8d#X\	.
8E#X\ 8G#X 8B	.	8cc#\J 8ccc#	.	8cc#/J	8e#X\J	.
=115	=115	=115	=115	=115	=115	=115
4FF#/ 4F#	.	8a#X\L 8aa#X	.	8ff#/L	8f#\L	[ <
.	.	8g#X\ 8gg#X	.	8ff#/	8g#X\	.
8En\ 8F# 8A#X	.	8f#\J 8ff#	.	8ff#/J	8a#X\J	.
=116	=116	=116	=116	=116	=116	=116
4BBB/ 4BB	.	8d#X\L 8dd#X	.	8bb/L	8b\L	[ <
.	.	8f#\ 8ff#	.	8bb/	8cc#\	.
8An\ 8B 8d#X	.	8b\J 8bb	.	8bb/J	8dd#X\J	.
=117	=117	=117	=117	=117	=117	=117
4EE/ 4E	.	8g#X\L 8gg#X	.	8eee/L	8ee\L	[ f
.	.	8f#\ 8ff#	.	8eee/	8ee\	.
8E\ 8G#X 8B 8dn	.	8e\J 8ee	.	8eee/J	8ee\J	.
=118	=118	=118	=118	=118	=118	=118
4CCn/ 4Cn	.	8a\L 8aa	<	8eee/L	8ee\L	.
.	.	8g#X\ 8gg#X	.	8eee/	8ee\	.
8E\ 8A 8cn	.	8a\J 8aa	.	8eee/J	8ee\J	.
=119	=119	=119	=119	=119	=119	=119
4AAA/ 4AA	.	8ccn\L 8cccn	.	8eee/L	8ee\L	.
.	.	8b\ 8bb	.	8eee/	8ee\	.
8E\ 8A 8cn	.	8cc\J 8ccc	[[	8eee/J	8ee\J	.
=120	=120	=120	=120	=120	=120	=120
8FFFn/ 8FFn	.	8ffn\ 8aa 8cccn 8fffn	sf	8fffn/L	8ffn\L	.
8r	.	8r	.	8fff/	8ff\	.
[8FF/ [8Fn	.	[8fn\ [8ff	ff	8fff/J	8ff\J	.
=121	=121	=121	=121	=121	=121	=121
8FF/L] 8F]	.	8f/L] 8ff]	.	8fffn/L	8ffn\L	.
8EE/ 8E	.	8e/ 8ee	.	8eee/	8ee\	.
!	!	!LO:LB:g=original	!	!	!	!
8DD#X/J 8D#X	.	8d#X/J 8dd#X	.	8ddd#X/J	8dd#X\J	.
!LO:LB:g=original	!	!	!LO:LB:g=original	!	!	!LO:LB:g=original
=122	=122	=122	=122	=122	=122	=122
8EE/ 8E	.	8e\ 8ee	sf	8eee/L	8ee\L	>
8r	.	8r	.	8ee/	8e\	.
8r	.	8r	.	8ee/J	8e\J	.
=123	=123	=123	=123	=123	=123	=123
4.r	.	8r	>	8ee/L	8e\L	.
.	.	(8d/L	p	8ee/	8fn\	.
.	.	8d#X/J	.	8ee/J	8f#X\J	.
=124	=124	=124	=124	=124	=124	=124
4.r	.	8e/L	.	8ee/L	8g\L	.
.	.	8fn/	.	8ee/	8g#X\	.
.	.	8f#X/J	.	8ee/J	8a\J	.
=125	=125	=125	=125	=125	=125	=125
4.r	.	8g/L	.	8ee/L	8a#X\L	.
.	.	8g#X/	.	8ee/	8b\	.
.	.	8a/J	.	8ee/J	8ccn\J	.
=126	=126	=126	=126	=126	=126	=126
4.r	.	8a#X\L	.	8ee/L	8cc#X\L	.
.	.	8b\	.	8ee/	8dd\	.
.	.	8ccn\J	.	8ee/J	8dd#X\J	.
=127	=127	=127	=127	=127	=127	=127
4.r	.	8cc#X\L	.	8ee/L	8ee\L	.
.	.	8dd\	.	8ffn/	8ee\	.
.	.	8dd#X\J	.	8ff#X/J	8ee\J	.
=128	=128	=128	=128	=128	=128	=128
4.r	.	8ee\L	.	8gg/L	8ee\L	.
.	.	8ffn\	.	8gg#X/	8ee\	.
.	.	8ff#X\J	.	8aa/J	8ee\J	.
=129	=129	=129	=129	=129	=129	=129
4.r	.	8gg\L	.	8aa#X/L	8ee\L	.
.	.	8gg#X\	.	8bb/	8ee\	.
.	.	8ee\J)	]]	8cccn/J	8ee\J	.
*	*	*	*	*v	*v	*
=130	=130	=130	=130	=130	=130
!LO:TX:b:t=una corda.	!	!	!	!	!
*	*	*	*	*tremolo	*
(4.AA/	.	8r	.	32a\LLL	]
!LO:LB:g=original	!	!	!	!	!
.	.	.	.	32a\	.
.	.	.	.	32a\	.
.	.	.	.	32a\JJJ	.
.	.	(8e/L	pp	32ee/LLL 32ccc#X	.
.	.	.	.	32ee/ 32ccc#	.
.	.	.	.	32ee/ 32ccc#	.
.	.	.	.	32ee/ 32ccc#	.
.	.	8a/J) 8cc#	.	32ee/ 32bb	.
!	!	!LO:LB:g=original	!	!	!
.	.	.	.	32ee/ 32bb	.
.	.	.	.	32ee/ 32bb	.
.	.	.	.	32ee/JJJ 32bb	.
!	!	!	!	!LO:LB:g=original	!
=131	=131	=131	=131	=131	=131
4.A\)	.	8r	.	32a\LLL	.
.	.	.	.	32a\	.
.	.	.	.	32a\	.
.	.	.	.	32a\JJJ	.
.	.	(8e/L	.	32cc#/LLL 32aa	.
.	.	.	.	32cc#/ 32aa	.
.	.	.	.	32cc#/ 32aa	.
.	.	.	.	32cc#/ 32aa	.
.	.	8a/J) 8cc#	.	32cc#/ 32gg#X	.
.	.	.	.	32cc#/ 32gg#	.
.	.	.	.	32cc#/ 32gg#	.
.	.	.	.	32cc#/JJJ 32gg#	.
=132	=132	=132	=132	=132	=132
!	!	!	!	!LO:TX:a:t=Segue.	!
(4.AA/	.	8r	.	8a\	.
.	.	(8f#/L	.	8dd/L 8bb	.
.	.	8a/J) 8dd	.	8dd/J 8aa	.
=133	=133	=133	=133	=133	=133
4.A\)	.	8r	.	8a\	.
.	.	(8f#/L	.	8dd/L 8gg#X	.
.	.	8a/J) 8dd	.	8dd/J 8ff#	.
=134	=134	=134	=134	=134	=134
(4.GG#X/	.	8r	.	8g#X\	.
.	.	(8e/L	.	8dd/L 8ff#	.
.	.	8b/J) 8dd	.	8dd/J 8ee	.
=135	=135	=135	=135	=135	=135
4.G#X\)	.	8r	.	8e\	.
.	.	(8e/L	.	8dd/L 8ff#	.
.	.	8b/J) 8dd	.	8dd/J 8ee	.
=136	=136	=136	=136	=136	=136
(4.AA/	.	8r	.	8a\	.
.	.	(8e/L	.	8cc#/L 8ff#	.
.	.	8a/J) 8cc#	.	8cc#/J 8ee	.
=137	=137	=137	=137	=137	=137
(4.A#X\)	>	8r	.	8A#X\	.
.	.	(8cc#/L 8ee	.	8f#/L 8cc#	.
.	.	8f#/J)	.	8f#/J 8ff#	.
=138	=138	=138	=138	=138	=138
8B\)	.	8r	.	8B\	.
8r	]	(8f#/L	.	8f#/L 8ee	.
8r	.	8b/J) 8dd	.	8f#/J 8dd	.
=139	=139	=139	=139	=139	=139
(4.G#X\	>	8r	.	8G#X\	.
.	.	(8b/L 8dd	.	8e/L 8b	.
.	.	8e/J)	.	8e/J 8ee	.
=140	=140	=140	=140	=140	=140
8A\)	.	8r	.	8A\	.
8r	]	(8e/L	.	8e/L 8dd	.
8r	.	8a/J) 8cc#	.	8e/J 8cc#	.
!LO:PB:g=original	!	!LO:PB:g=original	!	!LO:PB:g=original	!
=141	=141	=141	=141	=141	=141
(4.C#/	.	8r	>	8c#\	.
.	.	(8e/L	.	8e/L 8b	.
.	.	8a/J) 8ee	.	8e/J 8a	.
=142	=142	=142	=142	=142	=142
4.D\	.	8r	.	8d\	.
.	.	(8f#/L	.	8f#/L 8cc#	.
.	.	8a/J) 8ff#	.	8f#/J 8b	.
=143	=143	=143	=143	=143	=143
4.D#X\	.	8r	.	8d#X\	.
.	.	(8f#/L	.	8f#/L 8cc#	.
.	.	8a/J) 8ff#	.	8f#/J 8b	.
=144	=144	=144	=144	=144	=144
!	!	!LO:TX:b:t=Segue.	!	!	!
4.E\	.	8r	.	8e\	.
.	.	(8e/L	.	8g#X/L 8cc#	.
.	.	8g#X/J) 8ee	]]	8g#/J 8b	.
=145	=145	=145	=145	=145	=145
4.G#X\)	.	8r	.	8g#X\	.
.	.	(8e/L	.	8dd/L 8ff#	.
.	.	8b/J) 8dd	.	8dd/J 8ee	.
=146	=146	=146	=146	=146	=146
(4.AA/	.	8r	.	8a\	.
.	.	(8e/L	.	8ee/L 8ccc#	.
.	.	8a/J) 8cc#	.	8ee/J 8bb	.
=147	=147	=147	=147	=147	=147
4.A\)	.	8r	.	8a\	.
.	.	(8ee\L	.	8cc#/L 8aa	.
.	.	8aa\J) 8ccc#	.	8cc#/J 8gg#X	.
=148	=148	=148	=148	=148	=148
(4.AA/	.	8r	.	8a\	.
.	.	(8f#/L	.	8dd/L 8bb	.
.	.	8a/J) 8dd	.	8dd/J 8aa	.
=149	=149	=149	=149	=149	=149
4.A\)	.	8r	.	8a\	.
.	.	(8ff#\L	.	8dd/L 8gg#X	.
.	.	8aa\J) 8ddd	.	8dd/J 8ff#	.
=150	=150	=150	=150	=150	=150
(4.GG#X/	.	8r	.	8g#X\	.
!LO:LB:g=original	!	!	!	!	!
.	.	(8e/L	.	8dd/L 8ff#	.
.	.	8b/J) 8dd	.	8dd/J 8ee	.
!	!	!LO:LB:g=original	!	!LO:LB:g=original	!
=151	=151	=151	=151	=151	=151
4.G#X\)	.	8r	.	8e\	.
.	.	(8ee\L	.	8dd/L 8ff#	.
.	.	8bb\J) 8ddd	.	8dd/J 8ee	.
=152	=152	=152	=152	=152	=152
4.AA/	.	8r	.	8a\	.
.	.	(8e/L	.	8cc#/L 8ff#	.
.	.	8a/J) 8cc#	.	8cc#/J 8ee	.
=153	=153	=153	=153	=153	=153
(4.A#X\	.	8r	sf >	8A#X\	.
.	.	(8cc#\L 8ee	.	8f#/L 8cc#	.
.	.	8f#\J)	.	8f#/J 8ff#	.
=154	=154	=154	=154	=154	=154
8B\)	.	8r	.	8B\	.
8r	.	(8f#/L	]	8f#/L 8ee	.
8r	.	8b/J) 8dd	.	8f#/J 8dd	.
=155	=155	=155	=155	=155	=155
(4.G#X\	.	8r	sf >	8G#X\	.
.	.	(8b/L 8dd	.	8e/L 8b	.
.	.	8e/J)	.	8e/J 8ee	.
=156	=156	=156	=156	=156	=156
8A\)	.	8r	.	8A\	.
8r	.	(8e/L	]	8e/L 8dd	.
8r	.	8a/J) 8cc#	.	8e/J 8cc#	.
=157	=157	=157	=157	=157	=157
(4.D\	.	8r	.	8d\	.
.	.	(8B/L	.	8f#/L 8cc#	.
.	.	8d/J) 8f#	.	8f#/J 8b	.
=158	=158	=158	=158	=158	=158
4.E\)	.	8r	.	8e\	.
.	.	(8c#/L 8a	.	8a/L 8cc#	.
.	.	8d/J) 8f#	.	8f#/J 8dd	.
=159	=159	=159	=159	=159	=159
*	*	*^	*	*	*
4.EE/	.	(8a/	(8B\L	>	8e\	.
.	.	4g#X/)	8e\	.	8g#X/L 8cc#	.
.	.	.	8d\J)	.	8g#/J 8b	.
*	*	*v	*v	*	*	*
=160	=160	=160	=160	=160	=160
8AA'/	.	8c#/ 8a	]	8A\	.
(8A\L 8c#	.	8r	.	8c#/L 8e	.
8E\J)	.	8r	.	8c#/J 8a	.
!LO:LB:g=original	!	!LO:LB:g=original	!	!LO:LB:g=original	!
=161	=161	=161	=161	=161	=161
.	.	(8qff#/	.	.	.
8AA/	.	4.ee\)	.	8A\	.
(8G#X\L 8d	.	.	.	8e/L 8b	.
8E\J)	.	.	.	8g#X/J 8ee	.
=162	=162	=162	=162	=162	=162
.	.	(8qff#/	.	.	.
8AA/	.	4.ee\)	.	8A\	.
(8A\L 8c#	.	.	.	8a/L 8ee	.
8E\J)	.	.	.	8cc#/J 8aa	.
=163	=163	=163	=163	=163	=163
.	.	(8qff#/	.	.	.
8AA/	.	4.ee\)	.	8A\	.
(8G#X\L 8d	.	.	.	8e/L 8b	.
8E\J)	.	.	.	8g#X/J 8ee	.
=164	=164	=164	=164	=164	=164
.	.	(8qff#/	.	.	.
8AA/	.	4ee\)	.	8A\	.
(8A\L 8c#	.	.	.	8c#/L 8e	.
.	.	(8qff#/	.	.	.
8E\J)	.	8ee\)	.	8c#/J 8a	.
=165	=165	=165	=165	=165	=165
.	.	(8qff#/	.	.	.
8AA/	.	4ee\)	.	8A\	.
(8G#X\L 8d	.	.	.	8e/L 8b	.
.	.	(8qff#/	.	.	.
8E\J)	.	8ee\)	.	8g#X/J 8ee	.
=166	=166	=166	=166	=166	=166
.	.	(8qff#/	.	.	.
8AA/	.	4ee\)	.	8A\	.
(8A\L 8c#	.	.	.	8a/L 8ee	.
.	.	(8qff#/	.	.	.
8E\J)	.	8ee\)	.	8cc#/J 8aa	.
=167	=167	=167	=167	=167	=167
.	.	(8qff#/	.	.	.
8AA/	.	4ee\)	.	8A\	.
(8G#X\L 8d	.	.	.	8e/L 8b	.
.	.	(8qff#/	.	.	.
8E\J)	.	8ee\)	.	8g#X/J 8ee	.
=168	=168	=168	=168	=168	=168
.	.	(8qff#/	.	.	.
8AA/	.	8ee\L)	.	8A\	.
.	.	(8qff#/	.	.	.
(8A\L 8c#	.	8ee\)	.	8c#/L 8e	.
.	.	(8qff#/	.	.	.
8E\J)	.	8ee\J)	.	8c#/J 8a	.
=169	=169	=169	=169	=169	=169
.	.	(8qff#/	.	.	.
8AA/	.	8ee\L)	.	8A\	<
.	.	(8qff#/	.	.	.
(8G#X\L 8d	.	8ee\)	.	8e/L 8b	.
.	.	(8qff#/	.	.	.
8E\J)	.	8ee\J)	.	8g#X/J 8ee	.
=170	=170	=170	=170	=170	=170
8AA/	.	[4.eeT\	.	8a\	.
!	!	!LO:LB:g=original	!	!	!
(8A\L 8c#	.	.	.	8cc#/L 8ee	.
8E\J)	.	.	.	8cc#/J 8aa	.
!LO:LB:g=original	!	!	!	!LO:LB:g=original	!
=171	=171	=171	=171	=171	=171
8AA/	.	(4.ee\]	.	8a\	.
(8G#X\L 8d	.	.	.	8ee/L 8bb	.
8E\J)	.	.	.	8gg#X/J 8eee	[[
.	.	16qqdd#X/LL	.	.	.
.	.	16qqee/JJ	.	.	.
=172	=172	=172	=172	=172	=172
*	*	*	*	*^	*
8AA/	.	8aa\)	sf	32a/LLL 32aa	8ryy	f
.	.	.	.	32a/ 32aa	.	.
.	.	.	.	32a/ 32aa	.	.
.	.	.	.	32a/JJJ 32aa	.	.
8r	.	8r	.	32a/LLL	32A\LLL 32a	.
.	.	.	.	32a/	32A\ 32a	.
.	.	.	.	32a/	32A\ 32a	.
.	.	.	.	32a/	32A\ 32a	.
8r	.	8r	.	32a/	32A\ 32a	.
.	.	.	.	32a/	32A\ 32a	.
.	.	.	.	32a/	32A\ 32a	.
.	.	.	.	32a/JJJ	32A\JJJ 32a	.
*	*	*	*	*v	*v	*
=173	=173	=173	=173	=173	=173
!	!	!LO:TX:a:t=Cadenza.	!	!LO:TX:a:t=CADENZA.	!
4.r	.	4.r	.	4.r	.
=174	=174	=174	=174	=174	=174
*	*	*	*	*^	*
4.r	.	4.r	.	32aaa/LLL	32a\LLL	.
.	.	.	.	32aaa/	32a\	.
.	.	.	.	32aaa/	32a\	>
.	.	.	.	32aaa/	32a\	.
.	.	.	.	32aaa/	32a\	.
.	.	.	.	32aaa/	32a\	.
.	.	.	.	32aaa/	32a\	.
.	.	.	.	32aaa/	32a\	.
.	.	.	.	32ggg#X/	32a\	.
.	.	.	.	32ggg#/	32a\	.
.	.	.	.	32ggg#/	32a\	.
.	.	.	.	32ggg#/JJJ	32a\JJJ	.
=175	=175	=175	=175	=175	=175	=175
4.r	.	4.r	.	32gggn/LLL	32a\LLL	.
.	.	.	.	32ggg/	32a\	.
.	.	.	.	32ggg/	32a\	.
.	.	.	.	32ggg/	32a\	.
.	.	.	.	32ggg/	32a\	.
.	.	.	.	32ggg/	32a\	.
.	.	.	.	32ggg/	32a\	.
.	.	.	.	32ggg/	32a\	.
.	.	.	.	32fff#/	32a\	.
.	.	.	.	32fff#/	32a\	.
.	.	.	.	32fff#/	32a\	.
.	.	.	.	32fff#/JJJ	32a\JJJ	.
=176	=176	=176	=176	=176	=176	=176
4.r	.	4.r	.	32eee/LLL	32a\LLL	.
.	.	.	.	32eee/	32a\	.
.	.	.	.	32eee/	32a\	.
.	.	.	.	32eee/	32a\	.
.	.	.	.	32eee/	32a\	.
.	.	.	.	32eee/	32a\	.
.	.	.	.	32eee/	32a\	.
.	.	.	.	32eee/	32a\	.
.	.	.	.	32ddd/	32a\	.
.	.	.	.	32ddd/	32a\	.
.	.	.	.	32ddd/	32a\	.
.	.	.	.	32ddd/JJJ	32a\JJJ	.
=177	=177	=177	=177	=177	=177	=177
4.r	.	4.r	.	32ccc#/LLL	32a\LLL	.
.	.	.	.	32ccc#/	32a\	.
.	.	.	.	32ccc#/	32a\	.
.	.	.	.	32ccc#/	32a\	.
.	.	.	.	32ccc#/	32a\	.
.	.	.	.	32ccc#/	32a\	.
.	.	.	.	32ccc#/	32a\	.
.	.	.	.	32ccc#/	32a\	.
.	.	.	.	32bb/	32a\	.
.	.	.	.	32bb/	32a\	.
.	.	.	.	32bb/	32a\	.
.	.	.	.	32bb/JJJ	32a\JJJ	.
=178	=178	=178	=178	=178	=178	=178
4.r	.	4.r	.	8r	32a\LLL	.
.	.	.	.	.	32a\	.
.	.	.	.	.	32a\	.
.	.	.	.	.	32a\	.
.	.	.	.	32bb/LLL	32a\	.
.	.	.	.	32bb/	32a\	.
.	.	.	.	32bb/	32a\	.
.	.	.	.	32bb/	32a\	.
.	.	.	.	32aa/	32a\	.
.	.	.	.	32aa/	32a\	.
.	.	.	.	32aa/	32a\	.
.	.	.	.	32aa/JJJ	32a\JJJ	.
=179	=179	=179	=179	=179	=179	=179
4.r	.	4.r	.	8r	32a\LLL	.
.	.	.	.	.	32a\	]
.	.	.	.	.	32a\	.
.	.	.	.	.	32a\	.
.	.	.	.	32bb/LLL	32a\	>
.	.	.	.	32bb/	32a\	.
.	.	.	.	32bb/	32a\	.
.	.	.	.	32bb/	32a\	.
.	.	.	.	32aa/	32a\	.
.	.	.	.	32aa/	32a\	.
.	.	.	.	32aa/	32a\	.
.	.	.	.	32aa/JJJ	32a\JJJ	.
=180	=180	=180	=180	=180	=180	=180
!	!	!	!	!LO:TX:a:t=Segue.	!	!
*	*	*	*	*	*Xtremolo	*
4.r	.	4.r	.	8r	8a\L	]
.	.	.	.	8bb/L	8a\	.
.	.	.	.	8aa/J	8a\J	.
=181	=181	=181	=181	=181	=181	=181
4.r	.	4.r	.	8r	8a\L	.
.	.	.	.	8bb/L	8a\	.
.	.	.	.	8aa/J	8a\J	.
=182	=182	=182	=182	=182	=182	=182
4.r	.	4.r	.	8r	8a\L	p
.	.	.	.	8aa/L	8a\	.
.	.	.	.	8gg#X/J	8a\J	.
=183	=183	=183	=183	=183	=183	=183
4.r	.	4.r	.	8r	8a\L	.
.	.	.	.	8aa/L	8a\	.
.	.	.	.	8gg#X/J	8a\J	.
=184	=184	=184	=184	=184	=184	=184
4.r	.	4.r	.	8r	8a\L	.
.	.	.	.	8aa/L	8a\	.
.	.	.	.	8ggn/J	8a\J	.
=185	=185	=185	=185	=185	=185	=185
4.r	.	4.r	.	8r	8a\L	.
!LO:PB:g=original	!	!LO:PB:g=original	!	!	!	!
.	.	.	.	8aa/L	8a\	.
.	.	.	.	8gg/J	8a\J	.
!	!	!	!	!LO:PB:g=original	!LO:PB:g=original	!
*	*	*	*	*v	*v	*
=186	=186	=186	=186	=186	=186
8DD/ 8D	.	8r	p	8d/	.
8r	.	(8A/L	.	8a/L 8ff#	.
8r	.	8d/J) 8f#	.	8a/J 8ee	.
=187	=187	=187	=187	=187	=187
4.d^\	.	8r	.	8d\	.
.	.	(8a\L	.	8f#/L 8dd	.
.	.	8dd\J) 8ff#	.	8f#/J 8cc#	.
=188	=188	=188	=188	=188	=188
8DD/ 8D	.	8r	.	8d\	.
8r	.	(8B/L	.	8g/L 8ee	.
8r	.	8d/J) 8g	.	8g/J 8dd	.
=189	=189	=189	=189	=189	=189
4.d^\	.	8r	.	8d\	.
.	.	(8b\L	.	8g/L 8cc#	.
.	.	8dd\J) 8gg	.	8g/J 8b	.
=190	=190	=190	=190	=190	=190
8CC#/ 8C#	.	8r	.	8c#\	.
8r	.	(8A/L	.	8g/L 8b	.
8r	.	8e/J) 8g	.	8g/J 8a	.
=191	=191	=191	=191	=191	=191
4.c#\	.	8r	.	8A\	.
.	.	(8a\L	.	8g/L 8b	.
.	.	8ee\J) 8gg	.	8g/J 8a	.
=192	=192	=192	=192	=192	=192
8DD/ 8D	.	8r	.	8d\	.
8r	.	(8A/L	.	8f#/L 8b	.
8r	.	8d/J) 8f#	.	8f#/J 8a	.
=193	=193	=193	=193	=193	=193
(4.d#X\	.	8r	sf >	8d#X\	.
.	.	(8f#/L 8a	.	8b/L 8ff#	.
.	.	8B/J)	.	8b/J 8bb	.
=194	=194	=194	=194	=194	=194
8e\)	.	8r	.	8e\	.
8r	.	(8B/L	]	8b/L 8aa	.
8r	.	8e/J) 8g	.	8b/J 8gg	.
=195	=195	=195	=195	=195	=195
(4.C#/	.	8r	sf >	8c#\	.
!LO:LB:g=original	!	!	!	!	!
.	.	(8e/L 8g	.	8a/L 8ee	.
.	.	8A/J)	.	8a/J 8aa	.
!	!	!LO:LB:g=original	!	!LO:LB:g=original	!
=196	=196	=196	=196	=196	=196
8D^\)	.	8r	.	8d\	.
8r	.	(8A/L	]	8a/L 8gg	.
8r	.	8d/J) 8f#	.	8a/J 8ff#	.
=197	=197	=197	=197	=197	=197
(4.GG#X/	.	8r	.	8G#X\	.
.	.	(8B/L	.	8fn/L 8ee	.
.	.	8d/J) 8fn	.	8f/J 8dd	.
=198	=198	=198	=198	=198	=198
8AA/)	.	8r	.	8A/	.
8r	.	(8A/L	.	8f#X/L 8ee	.
8r	.	8d/J) 8f#X	.	8f#/J 8dd	.
=199	=199	=199	=199	=199	=199
*	*	*^	*	*	*
8AAA/ 8AA	.	4fn/	8G#X\L	.	8A\	.
8r	.	.	8B\	.	8g#X/L 8b	.
8r	.	8e/	8Gn\J 8c#	.	8gn/J 8cc#	.
=200	=200	=200	=200	=200	=200	=200
8D'\	.	8d/	8F#X\	.	8d\	.
(8d/L 8f#	.	8r	4ryy	.	8f#/L 8a	.
8A/J)	.	8r	.	.	8f#/J 8dd	.
*	*	*v	*v	*	*	*
=201	=201	=201	=201	=201	=201
*	*	*8va	*	*	*
8D'\	.	4.aaaT\	.	8d\	.
(8c#/L 8g	.	.	.	8a/L 8ee	.
8A/J)	.	.	.	8cc#/J 8aa	.
=202	=202	=202	=202	=202	=202
8D'\	.	4.aaa\	.	8d\	.
(8d/L 8f#	.	.	.	8dd/L 8aa	.
8A/J)	.	.	.	8ff#/J 8ddd	.
=203	=203	=203	=203	=203	=203
8D'\	.	4.aaa\	.	8d\	.
(8c#/L 8g	.	.	.	8a/L 8ee	.
8A/J)	.	.	.	8cc#/J 8aa	.
=204	=204	=204	=204	=204	=204
8D'\	.	4.aaa\	.	8d\	.
(8d/L 8f#	.	.	.	8f#/L 8a	.
8A/J)	.	.	.	8f#/J 8dd	.
=205	=205	=205	=205	=205	=205
8D'\	.	4.aaa\	.	8d\	.
!	!	!LO:LB:g=original	!	!	!
(8c#/L 8g	.	.	.	8a/L 8ee	.
8A/J)	.	.	.	8cc#/J 8aa	.
!LO:LB:g=original	!	!	!	!LO:LB:g=original	!
=206	=206	=206	=206	=206	=206
8D'\	.	4.aaa\	.	8d\	.
(8d/L 8f#	.	.	.	8dd/L 8aa	.
8A/J)	.	.	.	8ff#/J 8ddd	.
=207	=207	=207	=207	=207	=207
8D'\	.	4.aaa\	.	8d\	.
(8c#/L 8g	.	.	.	8a/L 8ee	.
8A/J)	.	.	.	8cc#/J 8aa	.
=208	=208	=208	=208	=208	=208
8D'\	.	4.aaa\	.	8d\	.
(8d/L 8f#	.	.	.	8f#/L 8a	.
8A/J)	.	.	.	8f#/J 8dd	.
=209	=209	=209	=209	=209	=209
8D'\	.	4.aaa\	.	8d\	.
(8c#/L 8g	.	.	.	8a/L 8ee	.
8A/J)	.	.	.	8cc#/J 8aa	.
=210	=210	=210	=210	=210	=210
8D'\	.	4.aaa\	.	8d\	.
(8d/L 8f#	.	.	.	8f#/L 8a	.
8A/J)	.	.	.	8f#/J 8dd	.
=211	=211	=211	=211	=211	=211
8D'\	.	4.aaa\	.	8d\	.
(8c#/L 8g	.	.	.	8a/L 8ee	.
8A/J)	.	.	.	8cc#/J 8aa	.
=212	=212	=212	=212	=212	=212
8D'\	.	4.aaa\	.	8d\	.
(8d/L 8f#	.	.	.	8f#/L 8a	.
8A/J)	.	.	.	8f#/J 8dd	.
=213	=213	=213	=213	=213	=213
8D'\	.	4.aaa\	.	8d\	.
(8c#/L 8g	.	.	.	8a/L 8ee	.
8A/J)	.	.	.	8cc#/J 8aa	.
=214	=214	=214	=214	=214	=214
8D'\	.	4.aaa\	.	8d\	.
(8d/L 8f#	.	.	.	8dd/L 8aa	.
8A/J)	.	.	.	8ff#/J 8ddd	.
=215	=215	=215	=215	=215	=215
8D'\	.	4.aaa\	.	8d\	.
!	!	!LO:LB:g=original	!	!	!
(8c#/L 8g	.	.	.	8aa/L 8eee	.
8A/J)	.	.	.	8ccc#/J 8aaa	.
!LO:LB:g=original	!	!	!	!LO:LB:g=original	!
=216	=216	=216	=216	=216	=216
*	*	*	*	*^	*
*	*	*	*	*tremolo	*	*
8DD/ 8D	.	8dddd\	sf	32dd/LLL 32ddd	32d\LLL	.
.	.	.	.	32dd/ 32ddd	32d\	.
.	.	.	.	32dd/ 32ddd	32d\	.
.	.	.	.	32dd/ 32ddd	32d\	.
*	*	*	*	*v	*v	*
*	*	*X8va	*	*	*
*	*	*	*	*^	*
!	!	!LO:TX:a:t=loco.	!	!	!	!
8r	.	8f#/L 8a 8ff#	ff	32dd/ 32ddd	32d\	.
.	.	.	.	32dd/ 32ddd	32d\	.
.	.	.	.	32dd/ 32ddd	32d\	.
.	.	.	.	32dd/ 32ddd	32d\	.
8r	.	8f#/J 8a 8ee	.	32dd/ 32ddd	32d\	.
.	.	.	.	32dd/ 32ddd	32d\	.
.	.	.	.	32dd/ 32ddd	32d\	.
.	.	.	.	32dd/JJJ 32ddd	32d\JJJ	.
=217	=217	=217	=217	=217	=217	=217
8D\ 8d	.	8r	sf	32dd/LLL 32ddd	32d\LLL	.
.	.	.	.	32dd/ 32ddd	32d\	.
.	.	.	.	32dd/ 32ddd	32d\	.
.	.	.	.	32dd/ 32ddd	32d\	.
!	!	!	!LO:DY:a	!	!	!
8r	.	8f#/L 8a 8dd	>	32dd/ 32ddd	32d\	.
.	.	.	.	32dd/ 32ddd	32d\	.
.	.	.	.	32dd/ 32ddd	32d\	.
.	.	.	.	32dd/ 32ddd	32d\	.
8r	.	8f#/J 8a 8cc#	]]	32dd/ 32ddd	32d\	.
.	.	.	.	32dd/ 32ddd	32d\	.
.	.	.	.	32dd/ 32ddd	32d\	.
.	.	.	.	32dd/JJJ 32ddd	32d\JJJ	.
=218	=218	=218	=218	=218	=218	=218
!	!	!	!	!LO:TX:a:t=Segue.	!	!
*	*	*	*	*Xtremolo	*	*
8DD/ 8D	.	8r	sf	8dd/L 8ddd	8d\L	.
!	!	!	!LO:DY:a	!	!	!
8r	.	8fn/L 8g#X 8ee	>	8dd/ 8ddd	8d\	.
8r	.	8f#X/J 8a 8dd	]]	8dd/J 8ddd	8d\J	.
=219	=219	=219	=219	=219	=219	=219
8D\ 8d	.	8r	sf	8dd/L 8ddd	8d\L	.
!	!	!	!LO:DY:a	!	!	!
8r	.	8fn/L 8g#X 8b	>	8dd/ 8ddd	8d\	.
8r	.	8f#X/J 8a	]]	8dd/J 8ddd	8d\J	.
=220	=220	=220	=220	=220	=220	=220
8D'\L 8d	.	8dd'\L 8ff# 8aa 8ddd	.	8dd/L 8ddd	8d\L	.
8C#'\ 8c#	.	8cc#'\ 8ccc#	.	8dd#X/ 8ddd#X	8d\	.
8Cn'\J 8cn	.	8ccn'\J 8cccn	.	8ee/J 8eee	8d\J	.
=221	=221	=221	=221	=221	=221	=221
8BB'\L 8B	.	8b'\L 8bb	.	8ffn/L 8fffn	8d\L	.
8BB-X'\ 8B-X	.	8b-X'\ 8bb-X	.	8ff#X/ 8fff#X	8d\	.
8AA'\J 8A	.	8a'\J 8aa	.	8gg/J 8ggg	8d\J	.
=222	=222	=222	=222	=222	=222	=222
8GG#X'/L 8G#X	.	8g#X'\L 8gg#X	.	8gg#X/L 8ggg#X	8d\L	.
8GGn'/ 8Gn	.	8gn'\ 8ggn	.	8aa/ 8aaa	8d\	.
8FF#'/J 8F#	.	8f#'\J 8ff#	.	8aa#X/J 8aaa#X	8d\J	.
=223	=223	=223	=223	=223	=223	=223
8FFn'/L 8Fn	.	8fn'\L 8ffn	.	8bb/L 8bbb	8d\L	.
8EE'/ 8E	.	8e'\ 8ee	.	8cccn/ 8ccccn	8d\	.
8EE-X'/J 8E-X	.	8e-X'\J 8ee-X	.	8ccc#X/J 8cccc#X	8d\J	.
=224	=224	=224	=224	=224	=224	=224
8DD/ 8D	.	8d/ 8dd	.	8ddd/ 8dddd	8d\	.
8r	.	8r	.	8r	4ryy	.
8r	.	8r	.	8r	.	.
=225	=225	=225	=225	=225	=225	=225
!LO:TX:b:t=FINE.	!	!	!	!	!	!
!LO:TX:b:t=8	!	!LO:TX:a:t=8	!	!	!	!
8DD/	.	8dd\ 8ff# 8aa 8ddd	sf	8ff#/ 8ddd	8d\	.
8r	.	8r	.	8r	4ryy	.
8r	.	8r	.	8r	.	.
*	*	*	*	*v	*v	*
==	==	==	==	==	==
*-	*-	*-	*-	*-	*-
!!!system-decoration: s1[(s2,s3)]
!!!ENC: Filip Voros
!!!END: 2022-02-26
!!!ENC: Julita Ruszuk
!!!EN: 2022-03-01
